X: 4392
T: "YOU AND I" WALTZ
R: Waltz
%R: waltz
N: The German song "In Lauterbach hab' ich mein' Strumpf verlor'n" is probably the oldest known version of this tune.
N: "Where oh where is my little dog gone" is the best-known English song using this tune.
B: James Kerr "Merry Melodies" v.4 p.43 #392
Z: 2016 John Chambers <jc:trillian.mit.edu>
M: 3/4
L: 1/4
K: F
c |\
(c2A) | FEF | (G2E) | C2c |\
(d2c) | BAG |[1 c3- | cz :|[2 F3- | Fzz |:\
fAc | fAc | Bg>f | e3 |\
eGB | eGB |[2 ca>g | f3 :|[2 ede "_D.C."f3 |]

%%sep 1 1 500
%%sep 1 1 500

